X:1
T: Londonderry Hornpipe
C:
R:Reel
Q: 232
K:D
M:4/4
L:1/8
|:AG|F2 Ad fd AF|G2 Bd gd BG|F2 Ad fd AF|E2 Ac ec AG|
F2 Ad fd AF|G2 Bd gd BG|FA df ef ec|d2 f2 d2:|
|:fg|a2 fd Ad fa|b2 gd Bd gb|a2 fd Ad fd|ed cB A2 fg|
a2 fd Ad fa|b2 gd Bb ag|fa fd eg ec|d2 f2 d2:|
|:fg|ag ab af df|gf ga ge cA|ag ab af df|ed cB A2 fg|
ag ab af df|gf ga ge ce|fa fd eg ec|d2 f2 d2:|
